X: 4
T:Varsovienne
O:France
R:Mazurka
M:3/4
K:C
G|:e/2d/2eG|e/2d/2eG|e/2d/2ef|d2G|d/2c/2dG|d/2c/2dG|d/2c/2de|1c2G
:|2c2c|
|:B/2A/2Gd|d2c|B/2A/2Ge|e2c|
B/2A/2Gd|d2f|1e/2d/2 c/2d/2 e/2f/2|g2c:|2e/2d/2ce|c2G||
